svg/format_letter_spacing_variant.svg

<svg xmlns="http://www.w3.org/2000/svg" viewBox="0 0 24 24"><path d="M22 3v18h-2V3zM4 3v18H2V3zm6 10.7h4l-2-5.4zM11.2 6h1.7l4.7 12h-2l-.9-2.6H9.4L8.5 18h-2z"/></svg>

<svg xmlns="http://www.w3.org/2000/svg" id="mdi-format-letter-spacing-variant" viewBox="0 0 24 24"><path d="M22 3V21H20V3H22M4 3V21H2V3H4M10 13.7H14L12 8.3L10 13.7M11.2 6H12.9L17.6 18H15.6L14.7 15.4H9.4L8.5 18H6.5L11.2 6Z" /></svg>
